resources/icons/20px/header-two.svg

<svg width="20" height="20" viewBox="0 0 20 20" fill="none" xmlns="http://www.w3.org/2000/svg">
<path fill-rule="evenodd" clip-rule="evenodd" d="M2 11V16C2 16.5523 1.55228 17 1 17C0.447715 17 0 16.5523 0 16V11V9V3C0 2.44772 0.447715 2 1 2C1.55228 2 2 2.44772 2 3V9H9V3C9 2.44772 9.44771 2 10 2C10.5523 2 11 2.44772 11 3V9V11V16C11 16.5523 10.5523 17 10 17C9.44771 17 9 16.5523 9 16V11H2ZM16.0332 17.96C16.1927 17.77 16.3721 17.58 16.5914 17.41C16.8007 17.23 17.0399 17.05 17.299 16.88L17.2991 16.8799C17.5482 16.7 17.7974 16.52 18.0465 16.32C18.2957 16.12 18.5349 15.91 18.7741 15.69C19.0033 15.47 19.2126 15.22 19.402 14.95C19.5814 14.68 19.7309 14.39 19.8405 14.07C19.9502 13.75 20 13.4 20 13C20 12.68 19.9502 12.35 19.8605 12C19.7708 11.65 19.6113 11.32 19.392 11.03C19.1728 10.73 18.8837 10.48 18.5249 10.29C18.1661 10.09 17.7176 10 17.1794 10C16.691 10 16.2525 10.1 15.8837 10.29C15.5149 10.47 15.196 10.73 14.9369 11.07C14.6777 11.4 14.4884 11.8 14.3588 12.27C14.2292 12.73 14.1595 13.23 14.1595 13.77H15.5847C15.5947 13.42 15.6246 13.1 15.6744 12.8C15.7243 12.5 15.814 12.24 15.9236 12.02C16.0332 11.8 16.1827 11.63 16.3721 11.5C16.5615 11.37 16.8007 11.31 17.0797 11.31C17.3887 11.31 17.6379 11.37 17.8272 11.49C18.0166 11.61 18.1661 11.75 18.2757 11.92C18.3854 12.09 18.4551 12.28 18.495 12.48C18.5349 12.68 18.5548 12.87 18.5548 13.05C18.5448 13.43 18.4551 13.77 18.2957 14.07C18.1462 14.37 17.9269 14.64 17.6678 14.9C17.4086 15.15 17.1296 15.39 16.8206 15.61C16.5116 15.83 16.2126 16.06 15.9336 16.29C15.3355 16.74 14.8771 17.27 14.5282 17.87C14.1794 18.48 14.01 19.19 14 20H19.9701V18.57H15.7043C15.7641 18.36 15.8738 18.15 16.0332 17.96Z" fill="black"/>
</svg>

<svg xmlns="http://www.w3.org/2000/svg" viewBox="0 0 20 20">
  <path d="M2 11v5a1 1 0 1 1-2 0V3a1 1 0 0 1 2 0v6h7V3a1 1 0 1 1 2 0v13a1 1 0 1 1-2 0v-5zm14.033 6.96c.16-.19.34-.38.558-.55.21-.18.449-.36.708-.53.25-.18.498-.36.748-.56.249-.2.488-.41.727-.63.23-.22.439-.47.628-.74.18-.27.329-.56.438-.88.11-.32.16-.67.16-1.07 0-.32-.05-.65-.14-1s-.249-.68-.468-.97c-.22-.3-.508-.55-.867-.74-.359-.2-.807-.29-1.346-.29-.488 0-.926.1-1.295.29q-.557.27-.947.78c-.26.33-.449.73-.578 1.2-.13.46-.2.96-.2 1.5h1.426c.01-.35.04-.67.09-.97s.139-.56.249-.78.259-.39.448-.52c.19-.13.429-.19.708-.19q.463 0 .747.18c.19.12.34.26.449.43.11.17.18.36.219.56q.06.3.06.57c-.01.38-.1.72-.26 1.02-.149.3-.368.57-.627.83-.26.25-.538.49-.847.71-.31.22-.608.45-.887.68-.598.45-1.057.98-1.406 1.58-.349.61-.518 1.32-.528 2.13h5.97v-1.43h-4.266c.06-.21.17-.42.33-.61"/>
</svg>
